X:0
T:Fy gar Rub her o'er with Straw
G:song
S:NLS MS.3327, Inglis.12
M:4/4
L:1/8
Q:1/4=120
K:AMin
c3 B A2e2|decd B2AG|c3  d e^fg2|edcB A4:|
g2e2 e2dc|Bcde B2AG|g>agf e2 g2|ageg a3b|
g3 f e2dc|Bcde B2AG|c3  d e^fg2|edcB A4:|
